X:1
T:Aberystwyth (Parry), 77.77 D
T:Aberystwyth (Parry), 77.77 D
T:Joseph Parry, 1876
T:Public Domain Courtesy of the Cyber Hymnal™
C:Joseph Parry, 1876
Z:Public Domain
Z:Courtesy of the Cyber Hymnal™
%%score ( 1 2 ) ( 3 4 )
L:1/8
Q:1/4=105
M:4/4
K:G
V:1 treble 
V:2 treble 
V:3 bass 
V:4 bass 
V:1
 [B,E]2 (E[^DF]) ([EG][FA]) [GB]2 | [EG]2 [^DF]2 [B,E]4 | [EG]2 [^DF]2 E2 [B,D]2 | %3
 (EF) [EG]2 [^DF]4 | [B,E]2 ([B,E][^DF]) [EG][FA] [GB]2 | [EG]2 [^DF]2 [B,E]4 | %6
 [^DF]2 ([EG][FA]) [GB]2 [FA]2 | [EG]2 [^DF]2 [B,E]4 | [CE]2 [B,D]2 [CE]2 [CF]2 | %9
 [DG]2 (BA) [DG]4 | [EG]2 [^DF]2 [EG]2 A2 | [DB]2 ([Fd][E^c]) [DB]4 | [Ee]2 e2 [Gd]2 [DB]2 | %13
 [EG]2 [EA]2 [FB]4 | E2 (E[^DF]) ([EG][FA]) [GB]2 | [EG]2 [^DF]2 [B,E]4 |] %16
V:2
 x8 | x8 | x4 E2 x2 | B,2 x6 | x8 | x8 | x8 | x8 | x8 | x2 F2 x4 | x6 (F=D) | x8 | x2 (GF) x4 | %13
 x8 | E2 x6 | x8 |] %16
V:3
 [E,G,]2 B,2 [E,B,]2 B,2 | [B,,B,]2 (B,A,) [E,G,]4 | [E,B,]2 [F,B,]2 [G,B,]2 [A,B,]2 | %3
 B,2 [E,B,]2 [B,,B,]4 | ([E,G,][F,A,]) B,2 [E,B,]2 B,2 | [B,,B,]2 (F,A,) [E,G,]4 | %6
 [B,,B,]2 ([E,B,][D,D]) [G,D]2 [A,C]2 | B,2 (B,A,) [E,G,]4 | [C,G,]2 [G,,G,]2 G,2 [A,,A,]2 | %9
 [G,,B,]2 (DC) [G,,B,]4 | [E,B,]2 [B,,B,]2 [E,B,]2 (DF,) | z z z ^A, [B,,B,]4 | %12
 [C,G,]2 C2 [B,D]2 x2 | [E,B,]2 [C,E]2 [B,,^D]4 | ([G,B,][A,C]) ([G,B,][F,A,]) [E,B,]2 B,2 | %15
 [B,,B,]2 (F,/G,/A,) [E,G,]4 |] %16
V:4
 x2 (G,,B,,) x (G,,A,,) x | x2 B,,2 x4 | x8 | (G,F,) x6 | x2 (G,F,) x (G,,A,,) x | x2 B,,2 x4 | %6
 x8 | B,2 B,,2 x4 | x4 (C,B,,) x2 | x2 D,2 x4 | x6 D,2 | G,2 B,2 F,2 x2 | x2 C2 G,2 x2 | x8 | %14
 x6 (G,,A,,) | x2 B,,2 x4 |] %16

